X:1
T: MacLauchlin's Scotch Measure
C:
R:Reel
Q: 232
K:D
M:4/4
L:1/8
|:FE|D2 DF ED EF|A2 E2 E2 FE|D2 DF ED EF|AF ED d2 de|
fe df ed Be|dB AF E2 FE|DE FG AB dA|F2 D2 D2 fe|
d2 a2 fg af|b2 e2 e2 fe|d2 a2 fg ab|ag fe d2 de|
fe df ed Be|dB AF E2 FE|DE FG AB dA|F2 D2 D2:|
